assets/bank-tab/Asset/rupaycreditcard.svg

<svg width="64" height="56" viewBox="0 0 64 56" fill="none" xmlns="http://www.w3.org/2000/svg">
<g clip-path="url(#clip0_5346_1769)">
<rect x="17.9695" y="44.939" width="1.08163" height="1.08163" transform="rotate(-180 17.9695 44.939)" fill="#1768B9"/>
<path d="M24.2441 60.1561C24.3209 60.6421 24.7398 61 25.2318 61L42.0741 61C42.5661 61 42.985 60.6421 43.0619 60.1561L43.9285 54.6735L23.3774 54.6735L24.2441 60.1561Z" fill="#1768B9"/>
<path d="M16.8874 45.9189C16.8876 52.5462 22.2602 57.9189 28.8874 57.9189H37.3366C43.9639 57.9189 49.3365 52.5462 49.3366 45.9189V44.8574C49.3366 44.3051 48.8889 43.8574 48.3366 43.8574H17.8874C17.3351 43.8574 16.8874 44.3051 16.8874 44.8574V45.9189Z" fill="#1768B9"/>
<rect x="59.3492" y="38.8578" width="49.7551" height="33.5306" rx="6" transform="rotate(168.5 59.3492 38.8578)" fill="#3998F8"/>
<rect x="55.3667" y="19.2968" width="49.7467" height="6.2471" transform="rotate(168.5 55.3667 19.2968)" fill="#79C7FF"/>
<path d="M39.6837 40.668C34.4572 41.2659 33.1119 46.547 33.1119 49.2656L33.1119 55.7554L33.1119 56.837L37.4384 56.837L39.3232 56.837C40.9417 56.837 42.6009 56.6735 43.9923 55.8468C49.0696 52.8301 50.418 46.1174 50.418 42.7758L50.418 32.5003C50.418 31.3055 49.4495 30.337 48.2548 30.337C42.1976 31.2023 40.6833 35.7452 40.6833 37.9085L40.6833 39.6125C40.6833 40.1648 40.2324 40.6053 39.6837 40.668Z" fill="#1768B9"/>
</g>
<defs>
<clipPath id="clip0_5346_1769">
<rect width="64" height="56" fill="white"/>
</clipPath>
</defs>
</svg>

<svg xmlns="http://www.w3.org/2000/svg" width="64" height="56" fill="none" viewBox="0 0 64 56"><g clip-path="url(#a)"><path fill="#1768b9" d="M17.969 44.939h-1.082v-1.082h1.082zm6.275 15.217a1 1 0 0 0 .988.844h16.842a1 1 0 0 0 .988-.844l.867-5.483H23.377z"/><path fill="#1768b9" d="M16.887 45.919c0 6.627 5.373 12 12 12h8.45c6.627 0 12-5.373 12-12v-1.062a1 1 0 0 0-1-1h-30.45a1 1 0 0 0-1 1z"/><rect width="49.755" height="33.531" x="59.349" y="38.858" fill="#3998f8" rx="6" transform="rotate(168.5 59.35 38.858)"/><path fill="#79c7ff" d="M55.366 19.297 6.618 29.215l-1.245-6.122 48.748-9.918z"/><path fill="#1768b9" d="M39.684 40.668c-5.227.598-6.572 5.879-6.572 8.598v7.571h6.211c1.619 0 3.278-.164 4.67-.99 5.077-3.017 6.425-9.73 6.425-13.071V32.5a2.163 2.163 0 0 0-2.163-2.163c-6.057.865-7.572 5.408-7.572 7.571v1.704c0 .553-.45.993-1 1.056"/></g><defs><clipPath id="a"><path fill="#fff" d="M0 0h64v56H0z"/></clipPath></defs></svg>
